X: 90
T: O beate Sebastiane
N: Derived from Mar2079-O_beate_Sebastiane.krn
C: Johannes Martini
%%abc-version 2.0
%%abcx-abcm2ps-target-version 5.9.1 (29 Sep 2008)
%%abc-creator hum2abc beta
%%abcx-conversion-date 2019/02/17 07:19:42
%%abc-edited-by Jesse Rodin
%%abc-edited-by Chris Gage 09-11-2014
%%abcx-initial-encoding-date 2014/10/09/
%%humdrum-veritas 1514029460
%%humdrum-veritas-data 1233313743
%%linebreak <none>
%%barnumbers 0
L: 1/4
M: 3/1
Q: 1/2=120
%%staves [1 2 3 4]
V: 1 clef=treble
V: 2 clef=treble-8
V: 3 clef=treble-8
V: 4 clef=bass
K: F
[V:1] z12 | 
[V:2] z4z4G4- | 
[V:3] z12 | 
[V:4] G,6F,2G,2B,2- | 
[V:1] z4G6F2 | 
[V:2] G2F2G2B4A2 | 
[V:3] z12 | 
[V:4] B,2A,2z2G,4D,2 | 
[V:1] G2B4A4G2 | 
[V:2] G2d3cA2B4 | 
[V:3] z12 | 
[V:4] E,2G,4F,2G,4 | 
[V:1] A8z4 | 
[V:2] A8z4 | 
[V:3] z12 | 
[V:4] D,8z4 | 
[V:1] !fermata!D12 | 
[V:2] !fermata!A12 | 
[V:3] !fermata!F12 | 
[V:4] !fermata!D,12 | 
[V:1] !fermata!E12 | 
[V:2] !fermata!c12 | 
[V:3] !fermata!G12 | 
[V:4] !fermata!C,12 | 
[V:1] !fermata!F12 | 
[V:2] !fermata!d12 | 
[V:3] !fermata!B12 | 
[V:4] !fermata!B,,12 | 
[V:1] !fermata!G12 | 
[V:2] !fermata!d12 | 
[V:3] !fermata!B12 | 
[V:4] !fermata!G,,12 | 
[V:1] !fermata!^F12 | 
[V:2] !fermata!d12 | 
[V:3] !fermata!A12 | 
[V:4] !fermata!D,12 | 
[V:1] z12 | 
[V:2] z12 | 
[V:3] z12 | 
[V:4] z12 | 
[V:1] !fermata!G12 | 
[V:2] !fermata!d12 | 
[V:3] !fermata!G12 | 
[V:4] !fermata!G,,12 | 
[V:1] !fermata!F12 | 
[V:2] !fermata!d12 | 
[V:3] !fermata!A12 | 
[V:4] !fermata!D,12 | 
[V:1] !fermata!G12 | 
[V:2] !fermata!B8G4 | 
[V:3] !fermata!G12 | 
[V:4] !fermata!_E,12 | 
[V:1] !fermata!A8G2F2 | 
[V:2] !fermata!d8D4 | 
[V:3] !fermata!F12 | 
[V:4] !fermata!D,12 | 
[V:1] !fermata!E12 | 
[V:2] !fermata!E12 | 
[V:3] !fermata!G12 | 
[V:4] !fermata!C,12 | 
[V:1] !fermata!D12 ||  
[V:2] !fermata!F12 ||  
[V:3] !fermata!B12 ||  
[V:4] !fermata!B,,12 ||  
[V:1]  [K:F] [K:clef=treble][M:4/2]z8 | 
[V:2]  [K:F] [K:clef=treble-8][M:4/2]z8 | 
[V:3]  [K:F] [K:clef=treble-8][M:4/2]z8 | 
[V:4]  [K:F] [K:clef=bass][M:4/2]A,,4B,,4 | 
[V:1] z8 | 
[V:2] z4A4 | 
[V:3] z8 | 
[V:4] C,4D,4 | 
[V:1] z4A4 | 
[V:2] B4c4 | 
[V:3] z8 | 
[V:4] B,,4A,,4 | 
[V:1] B4c4 | 
[V:2] z8 | 
[V:3] z4A4 | 
[V:4] G,,2G,4F,2 | 
[V:1] z8 | 
[V:2] z8 | 
[V:3] B4c4 | 
[V:4] G,3F,E,4 | 
[V:1] z8 | 
[V:2] d4B3A | 
[V:3] z8 | 
[V:4] D,4G,3A, | 
[V:1] d3cB3A/G/ | 
[V:2] G2F2G4 | 
[V:3] z8 | 
[V:4] B,G,A,2G,3F,/E,/ | 
[V:1] F4G3F | 
[V:2] A4G2d2- | 
[V:3] d4B3A | 
[V:4] D,4G,,3A,, | 
[V:1] GBA2D3E | 
[V:2] def2B2d2- | 
[V:3] G2F2G2B2 | 
[V:4] B,,G,,A,,2G,,2G,2 | 
[V:1] FEG4^F2 | 
[V:2] d2c2d4 | 
[V:3] A2G2A4 | 
[V:4] D,2E,2D,4 | 
[V:1] G8 | 
[V:2] B8 | 
[V:3] G8 | 
[V:4] z4G,4 | 
[V:1] z8 | 
[V:2] z4G4 | 
[V:3] z8 | 
[V:4] F,4B,4 | 
[V:1] z8 | 
[V:2] F4B4 | 
[V:3] z8 | 
[V:4] C4D4 | 
[V:1] z8 | 
[V:2] c4d2_e2- | 
[V:3] z8 | 
[V:4] C2A,2B,2G,2- | 
[V:1] z4G4 | 
[V:2] e2d4c2 | 
[V:3] z8 | 
[V:4] G,F,_E,D,E,4 | 
[V:1] F4B4 | 
[V:2] d6cB | 
[V:3] z4G4 | 
[V:4] D,4z4 | 
[V:1] c4d4 | 
[V:2] A4z4 | 
[V:3] F4B4 | 
[V:4] z4G,4 | 
[V:1] c2A4G2- | 
[V:2] z2A3Bc2- | 
[V:3] c4d2e2- | 
[V:4] A,2F,3E,C,2- | 
[V:1] GFEDE4 | 
[V:2] cB/A/GFA4 | 
[V:3] e2d4^c2 | 
[V:4] C,D,B,,2A,,4 | 
[V:1] D8 | 
[V:2] z8 | 
[V:3] d4z4 | 
[V:4] z8 | 
[V:1] z8 | 
[V:2] z8 | 
[V:3] d4c4 | 
[V:4] z8 | 
[V:1] z8 | 
[V:2] z8 | 
[V:3] B4A4 | 
[V:4] G,4F,4 | 
[V:1] z8 | 
[V:2] z8 | 
[V:3] c4d4- | 
[V:4] _E,4D,4 | 
[V:1] z8 | 
[V:2] z8 | 
[V:3] d2c2B4- | 
[V:4] F,4G,2D,2- | 
[V:1] z4d4 | 
[V:2] z8 | 
[V:3] B2A4G2 | 
[V:4] D,C,A,,2B,,4 | 
[V:1] c4B4 | 
[V:2] z4g4 | 
[V:3] A4z4 | 
[V:4] A,,4z4 | 
[V:1] A4c4 | 
[V:2] f4_e4 | 
[V:3] z8 | 
[V:4] z8 | 
[V:1] d6c2 | 
[V:2] d4f4 | 
[V:3] z8 | 
[V:4] z8 | 
[V:1] B6A2- | 
[V:2] g2d3cA2 | 
[V:3] z8 | 
[V:4] z8 | 
[V:1] A2G2A4 | 
[V:2] B4A4- | 
[V:3] z8 | 
[V:4] z8 | 
[V:1] z8 | 
[V:2] A4z4 | 
[V:3] z8 | 
[V:4] C6B,2 | 
[V:1] z8 | 
[V:2] c6B2 | 
[V:3] z8 | 
[V:4] A,4G,2G,2- | 
[V:1] c6B2 | 
[V:2] A4G2G2- | 
[V:3] z8 | 
[V:4] G,2^F,2G,4 | 
[V:1] A4G2G2- | 
[V:2] G2F2G2d2- | 
[V:3] c6B2 | 
[V:4] z4G,,4 | 
[V:1] G2F2G2D2- | 
[V:2] dcd2B2G2 | 
[V:3] A4G2G2- | 
[V:4] D,4_E,2G,2 | 
[V:1] D2d3cB2- | 
[V:2] A4G2g2- | 
[V:3] G2^F2G4- | 
[V:4] D,4G,4 | 
[V:1] B2AG^F3E | 
[V:2] gfd3cd2- | 
[V:3] G2B2A4 | 
[V:4] E,2G,2D,4 | 
[V:1] G4z2F2- | 
[V:2] dcd_edcd2- | 
[V:3] G4z4 | 
[V:4] z4D,4- | 
[V:1] FGABADG2- | 
[V:2] dBd4cB | 
[V:3] z8 | 
[V:4] D,8- | 
[V:1] G2^F2G4 | 
[V:2] A4G4 | 
[V:3] z8 | 
[V:4] D,4z4 | 
[V:1] [M:3/1]z12 | 
[V:2] [M:3/1]z12 | 
[V:3] [M:3/1]F4G2A2B3A | 
[V:4] [M:3/1]D,4E,2C,2D,3C, | 
[V:1] z12 | 
[V:2] z12 | 
[V:3] G4^F2G6- | 
[V:4] B,,2A,,4G,,6 | 
[V:1] z12 | 
[V:2] d4_e2d2B2c2 | 
[V:3] G6z2z4 | 
[V:4] z4z2D,4_E,2 | 
[V:1] z4z2d4_e2 | 
[V:2] B3cA2B4z2 | 
[V:3] d4_e2d2B2c2 | 
[V:4] D,2B,,2C,2B,,3C,A,,2 | 
[V:1] d2B2c2B3GA2 | 
[V:2] f6d2f4 | 
[V:3] B4A2B2c4 | 
[V:4] B,,4F,2G,2F,4 | 
[V:1] [M:4/2]B8 | 
[V:2] [M:4/2]d8 | 
[V:3] [M:4/2]B8 | 
[V:4] [M:4/2]B,,8 | 
[V:1] z4B4- | 
[V:2] _e6dc | 
[V:3] G8 | 
[V:4] _E,8 | 
[V:1] B2G2A4 | 
[V:2] B3cd4 | 
[V:3] z4F4 | 
[V:4] _E,4D,4 | 
[V:1] G3F/E/D4 | 
[V:2] G2B4AG | 
[V:3] G4B4 | 
[V:4] _E,2D,C,B,,3C, | 
[V:1] F4E4 | 
[V:2] F3GA4 | 
[V:3] A4c4 | 
[V:4] D,4C,4 | 
[V:1] D4G4 | 
[V:2] D4z2G2 | 
[V:3] d4B4 | 
[V:4] B,,4G,,4- | 
[V:1] z2G,2B,3C | 
[V:2] B3cd4 | 
[V:3] B3AG3F | 
[V:4] G,,4G,4 | 
[V:1] D3EFEG2- | 
[V:2] G2g2f2_e2- | 
[V:3] B4B4- | 
[V:4] G,2F,E,D,2_E,2- | 
[V:1] GABAcB/c/d2- | 
[V:2] e2d2A2d2- | 
[V:3] B4A4 | 
[V:4] E,F,G,2F,2D,2- | 
[V:1] dcB4AG | 
[V:2] d8- | 
[V:3] B4G4 | 
[V:4] D,2G,4F,_E, | 
[V:1] FDG4^F2 | 
[V:2] d2c2d4 | 
[V:3] A2G2A4 | 
[V:4] D,2_E,2D,4 | 
[V:1] G8 ||  
[V:2] d8 ||  
[V:3] G8 ||  
[V:4] G,,8 ||  
[V:1]  [K:F] [K:clef=treble][M:4/2]z8 | 
[V:2]  [K:F] [K:clef=treble-8][M:4/2]z8 | 
[V:3]  [K:F] [K:clef=treble-8][M:4/2]z8 | 
[V:4]  [K:F] [K:clef=bass][M:4/2]B,8 | 
[V:1] z8 | 
[V:2] z8 | 
[V:3] z8 | 
[V:4] C6A,2 | 
[V:1] z8 | 
[V:2] f8 | 
[V:3] z8 | 
[V:4] B,4A,4 | 
[V:1] z8 | 
[V:2] g6e2 | 
[V:3] z8 | 
[V:4] G,4z2G,2 | 
[V:1] z8 | 
[V:2] f4e4 | 
[V:3] z8 | 
[V:4] F,2D,4C,2 | 
[V:1] z8 | 
[V:2] d4z2d2 | 
[V:3] z8 | 
[V:4] B,,2D,4C,B,, | 
[V:1] z8 | 
[V:2] c2A3GB2- | 
[V:3] z8 | 
[V:4] A,,2C,3B,,G,,2- | 
[V:1] z8 | 
[V:2] BAG2F2A2 | 
[V:3] z8 | 
[V:4] G,,A,,B,,C,D,3C, | 
[V:1] z8 | 
[V:2] D2G4^F2 | 
[V:3] z8 | 
[V:4] D,2B,,2A,,4 | 
[V:1] z8 | 
[V:2] G8 | 
[V:3] B8 | 
[V:4] G,,8 | 
[V:1] z8 | 
[V:2] z8 | 
[V:3] c6A2 | 
[V:4] z8 | 
[V:1] F8 | 
[V:2] z8 | 
[V:3] B4A4 | 
[V:4] z8 | 
[V:1] G6E2 | 
[V:2] z8 | 
[V:3] G3AB2c2 | 
[V:4] z8 | 
[V:1] F4E4 | 
[V:2] z8 | 
[V:3] A2d4^c2 | 
[V:4] z8 | 
[V:1] D3EF2G2- | 
[V:2] z8 | 
[V:3] d6G2 | 
[V:4] B,,3C,D,2_E,2- | 
[V:1] GEA4G2 | 
[V:2] z8 | 
[V:3] c2d2B4 | 
[V:4] E,2D,2G,4 | 
[V:1] A4z4 | 
[V:2] F3GA2B2 | 
[V:3] A4z4 | 
[V:4] z2D,4G,2 | 
[V:1] z8 | 
[V:2] A2d4c2 | 
[V:3] z8 | 
[V:4] F,2D,2_E,4 | 
[V:1] z8 | 
[V:2] d4B4 | 
[V:3] z4d4 | 
[V:4] D,8 | 
[V:1] z8 | 
[V:2] _e4d2c2- | 
[V:3] B3cA2G2- | 
[V:4] G,4F,2_E,2- | 
[V:1] z8 | 
[V:2] cBB4A2 | 
[V:3] G2F4E2 | 
[V:4] E,F,D,2C,4 | 
[V:1] z4d4 | 
[V:2] B8 | 
[V:3] F4z2F2 | 
[V:4] B,,8 | 
[V:1] B2c3BA2- | 
[V:2] z8 | 
[V:3] G2F2G2F2 | 
[V:4] z8 | 
[V:1] AGG4^F2 | 
[V:2] z8 | 
[V:3] G2B2A4 | 
[V:4] z8 | 
[V:1] [M:3/1]G6z2z4 | 
[V:2] [M:3/1]z4z4z2G2 | 
[V:3] [M:3/1]G6z2z4 | 
[V:4] [M:3/1]z4G,,2B,,4C,2 | 
[V:1] z4z4z2A2 | 
[V:2] B4c2d4c2 | 
[V:3] z4G2B4c2 | 
[V:4] D,4C,2B,,3G,,A,,2 | 
[V:1] B4c2d4c2 | 
[V:2] B3GA2G4z2 | 
[V:3] d4c2B3GA2 | 
[V:4] G,,4z4z4 | 
[V:1] B3GA2G4^F2 | 
[V:2] G4F2G2A4 | 
[V:3] G4z4z4 | 
[V:4] G,,4D,2_E,2D,4 | 
[V:1] G6z2z4 | 
[V:2] G6z2z4 | 
[V:3] z12 | 
[V:4] z4z2G,4F,2 | 
[V:1] z4z2d4c2 | 
[V:2] z12 | 
[V:3] z12 | 
[V:4] _E,4D,C,B,,3C,A,,2 | 
[V:1] B4AGF3GE2 | 
[V:2] z4z2d4c2 | 
[V:3] z12 | 
[V:4] G,,6z2z4 | 
[V:1] D4C2D3B,C2 | 
[V:2] B4AGF3GE2 | 
[V:3] z12 | 
[V:4] z12 | 
[V:1] [M:2/1]D4z4 | 
[V:2] [M:2/1]D4z4 | 
[V:3] [M:2/1]A8 | 
[V:4] [M:2/1]D,8 | 
[V:1] z8 | 
[V:2] d6c2 | 
[V:3] A6G2 | 
[V:4] F,6E,2 | 
[V:1] z8 | 
[V:2] d2e2f4 | 
[V:3] A2B2c4 | 
[V:4] F,2G,2A,4 | 
[V:1] z8 | 
[V:2] g4gfed | 
[V:3] d4dcBA | 
[V:4] B,4B,A,G,F, | 
[V:1] z8 | 
[V:2] c2f4e2- | 
[V:3] G2c4B2- | 
[V:4] E,2A,4G,2- | 
[V:1] z4G4 | 
[V:2] e2d4^c2 | 
[V:3] B2A4G2 | 
[V:4] G,A,F,2E,4 | 
[V:1] F4F4 | 
[V:2] d8 | 
[V:3] A8- | 
[V:4] D,8- | 
[V:1] F6G2 | 
[V:2] z4d4 | 
[V:3] A8 | 
[V:4] D,8 | 
[V:1] A2B4A2- | 
[V:2] c2d3Ac2 | 
[V:3] z8 | 
[V:4] z8 | 
[V:1] A2G2A4 | 
[V:2] B4A4 | 
[V:3] z8 | 
[V:4] z8 | 
[V:1] F8 | 
[V:2] d8 | 
[V:3] z8 | 
[V:4] z4D,4 | 
[V:1] z8 | 
[V:2] z4d4 | 
[V:3] z8 | 
[V:4] D,4D,3E, | 
[V:1] z8 | 
[V:2] d4d4- | 
[V:3] z4d4 | 
[V:4] F,D,G,4G,,2- | 
[V:1] z4A4 | 
[V:2] d4z4 | 
[V:3] d4d4- | 
[V:4] G,,A,,B,,G,,D,4 | 
[V:1] A4A4 | 
[V:2] z8 | 
[V:3] d4z4 | 
[V:4] z2D,4C,2 | 
[V:1] z8 | 
[V:2] z2d4c2 | 
[V:3] z8 | 
[V:4] B,,4A,,4 | 
[V:1] z8 | 
[V:2] B4A4 | 
[V:3] z2d4c2 | 
[V:4] G,,2G,2A,2F,2 | 
[V:1] z2d4c2 | 
[V:2] G4F4 | 
[V:3] B4A4 | 
[V:4] z2G,2A,2F,2 | 
[V:1] B4c2A2- | 
[V:2] G2B2A2f2- | 
[V:3] G4F2c2- | 
[V:4] z2G,2A,2F,2- | 
[V:1] A2G4^F2 | 
[V:2] fed3cA2 | 
[V:3] cGB2A4 | 
[V:4] F,2G,2D,4 | 
[V:1] !fermata!G4z4 | 
[V:2] !fermata!B4z4 | 
[V:3] !fermata!G4z4 | 
[V:4] !fermata!G,,4z4 | 
[V:1] !fermata!G8 | 
[V:2] !fermata!d8 | 
[V:3] !fermata!B8 | 
[V:4] !fermata!G,8 | 
[V:1] !fermata!F8 | 
[V:2] !fermata!d8 | 
[V:3] !fermata!A8 | 
[V:4] !fermata!D,8 | 
[V:1] !fermata!G6FE | 
[V:2] !fermata!B8 | 
[V:3] !fermata!G8 | 
[V:4] !fermata!_E,6D,C, | 
[V:1] !fermata!D8 | 
[V:2] !fermata!f8 | 
[V:3] !fermata!B8 | 
[V:4] !fermata!B,,8 | 
[V:1] !fermata!A8 | 
[V:2] !fermata!f8- | 
[V:3] !fermata!c8 | 
[V:4] !fermata!F,8 | 
[V:1] !fermata!B8 | 
[V:2] f8- | 
[V:3] !fermata!d8 | 
[V:4] !fermata!B,,8 | 
[V:1] !fermata!A8 | 
[V:2] f8 | 
[V:3] !fermata!c8 | 
[V:4] !fermata!F,8 | 
[V:1] !fermata!c8 | 
[V:2] !fermata!f8 | 
[V:3] !fermata!A8 | 
[V:4] !fermata!F,8 | 
[V:1] !fermata!B8 | 
[V:2] !fermata!d8- | 
[V:3] !fermata!G8 | 
[V:4] !fermata!G,8 | 
[V:1] !fermata!A8 | 
[V:2] d8- | 
[V:3] !fermata!A8 | 
[V:4] !fermata!D,8 | 
[V:1] !fermata!G8 | 
[V:2] d8 | 
[V:3] !fermata!B8 | 
[V:4] !fermata!G,,8 | 
[V:1] !fermata!F8 | 
[V:2] !fermata!d8 | 
[V:3] !fermata!A8 | 
[V:4] !fermata!D,8 | 
[V:1] [M:3/1]F12 | 
[V:2] [M:3/1]d12- | 
[V:3] [M:3/1]A12 | 
[V:4] [M:3/1]D,12- | 
[V:1] F6G2A2G2 | 
[V:2] d8e4 | 
[V:3] A6B2c2A2 | 
[V:4] D,8C,4 | 
[V:1] B4A6G2 | 
[V:2] f6e2f4 | 
[V:3] d4c6B2 | 
[V:4] B,,4F,8 | 
[V:1] G6^FEF4 | 
[V:2] d6c2d4 | 
[V:3] A2G2A8 | 
[V:4] G,4D,8 | 
[V:1] G12 |]  
[V:2] d12 |]  
[V:3] G12 |]  
[V:4] G,,12 |]  



